X:1
T:Intercession New, 12.12.12.12 refrain
T:Intercession New, 12.12.12.12 refrain
T:William Hutchins Callcott, 1867
T:Public Domain Courtesy of the Cyber Hymnal™
C:William Hutchins Callcott, 1867
Z:Public Domain
Z:Courtesy of the Cyber Hymnal™
%%score ( 1 2 ) ( 3 4 )
L:1/8
Q:1/4=115
M:4/4
K:Ab
V:1 treble 
V:2 treble 
V:3 bass 
V:4 bass 
V:1
 E3 [Ec] [Gc]2 [GB]2 | [FA]2 [FA]2 [FA]4 | [EG]2 [EA]2 [EB]2 [Ec]2 | [EB]8 | E3 [Ec] [Gc]2 [GB]2 | %5
 A2 (Bc) [Fd]4 | [DF]2 [DF]2 [DG]2 [DG]2 | [CA]8 | [Ac]3 [Ac] [=EB]2 [FA]2 | [FA]2 [FB]2 [=Ec]4 | %10
 [=Ec]2 [Ec]2 c2 =d2 | [Ge]8 | e3 z =d [Ac]2 [EB]2 | [=DB]2 [DA]2 [EG]4 | B2 (AF) [B,E]2 [B,_D]2 | %15
 E8 | E4 [EF]2 [DB]2 | ([CA]4 [B,G]2) [B,G]2 | A4 [Gd]2 [Fd]2 | [Ed]6 [Ed]2 | [Ec]4 [_Gc]4 | %21
 (B2 F2) (G2 A2) | (A4 G2) [EG]2 | [EA]8 |] %24
V:2
 E3 x5 | x8 | x8 | x8 | E3 x5 | A2 E2 x4 | x8 | x8 | x8 | x8 | x4 (Fc) (BA) | x8 | G2 G2 x5 | x8 | %14
 (E=D) C2 x4 | (B,2 D2 C2 B,2) | E4 x4 | x8 | A,2 A2 x4 | x8 | x8 | F4 F4 | E6 x2 | x8 |] %24
V:3
 [A,C]3 [A,C] [E,E]2 [E,D]2 | [F,C]2 [E,C]2 [D,D]4 | [B,D]2 [A,C]2 [G,B,]2 A,2 | [E,G,]8 | %4
 [C,A,]3 [A,C] [E,E]2 [E,D]2 | [F,C]2 ([G,B,]A,) [D,A,]4 | [D,A,]2 (DC) [E,C]2 [E,B,]2 | [A,,A,]8 | %8
 [F,A,]3 [F,C] [F,D]2 [F,C]2 | [D,D]2 [D,F,]2 [C,G,]4 | [C,G,]2 [C,G,]2 [F,A,]2 [F,B,]2 | [E,B,]8 | %12
 [CE]2 [B,E]2 [A,E]2 (EB,) x | [F,B,]2 [B,,B,]2 [E,B,]4 | [E,G,]2 [A,,A,]2 [B,,G,]2 [B,,F,]2 | %15
 (G,2 B,2 A,2 G,2) | [C,A,]4 [D,A,]2 [D,F]2 | (E4 D2) [E,D]2 | ([F,C]4 [B,D]2) [A,C]2 | %19
 [G,B,]6 [G,B,]2 | A,4 [=A,E]4 | [B,=D]4 [B,,_D]4 | [E,B,]6 [E,B,]2 | [A,,C]8 |] %24
V:4
 x8 | x8 | x6 A,2 | x8 | x8 | x8 | x2 D,2 x4 | x8 | x8 | x8 | x8 | x8 | x6 G,2 x | x8 | x8 | E,8 | %16
 x8 | E,6 x2 | x8 | x8 | =A,4 x4 | x8 | x8 | x8 |] %24

